X:1
T:Title
%%score 1 2
L:1/8
Q:1/4=95
M:3/4
K:G
V:1 treble nm="Grand Piano, Soprano"
V:2 bass nm="Choir Pad, White Plains, W.  Dale, 1879"
V:1
 [DB]>[CA] [B,G]3 [DA] | [EG][CE] [B,D]2 [B,G]2 | [DF]>[B,G] [DA]4 | [DB]>[CA] [B,G]4 | %4
w: By~William~Thomas~Dale,~1879 * * *||||
 [DB]>[CA] [B,G]3 [DA] | [EG][CE] [B,D]2 [B,G]2 | [DF]>[B,G] [DA]4 | [DB]>[CA] [B,G]4 | %8
w: ||||
 [GB]>[Gc] [Gd]3 [Ge] | [Gd][GB] [Gd]2 [GB]2 | [GB]>[Gc] [Gd]3 [Ge] | [Gd][GB] [Gd]2 [GB]2 | %12
w: ||||
 [DB]>[CA] [B,G]3 [DA] | [EG][CE] [B,D]2 [B,G]2 | [DF]>[B,G] [DA]4 | [DB]>[CA] [B,G]4 |] %16
w: ||||
V:2
 [G,,G,]>[G,,G,] [G,,G,]3 [B,,G,] | [C,G,][C,G,] [G,,G,]2 [G,,G,]2 | [D,A,]>[D,G,] [D,F,]4 | %3
 [D,G,]>[D,F,] [G,,G,]4 | [G,,G,]>[G,,G,] [G,,G,]3 [B,,G,] | [C,G,][C,G,] [G,,G,]2 [G,,G,]2 | %6
 [D,A,]>[D,G,] [D,F,]4 | [D,G,]>[D,F,] [G,,G,]4 | G,>[G,A,] [G,B,]3 [G,C] | %9
 [G,B,][G,D] [G,B,]2 [G,D]2 | G,>[G,A,] [G,B,]3 [G,C] | [G,B,][G,D] [G,B,]2 [G,B,]2 | %12
 [G,,G,]>[G,,G,] [G,,G,]3 [B,,G,] | [C,G,][C,G,] [G,,G,]2 [G,,G,]2 | [D,A,]>[D,G,] [D,F,]4 | %15
 [D,G,]>[D,F,] [G,,G,]4 |] %16

